X: 404
T: Blue Eagle
C:Traditional Texas Fiddle Tune
B: jims roots
M:4/4
L:1/8
Q: 1/4=100
K:D
V:1 
xFE |:"D"DFAd (3BdB AF | DFAd BcdB | F2 AF BFAF |
"A"EFED B,2A,2 | "D"A,D2 F EDFE | "G"DEFG ABde |
"A"gfed cdeg | [1 f"D"e d2 d2 FE:| [2 f"D"e d2 d2 Bc ||
|:"D"d2 (3efg a2 (3fga | "Bm"b2 fb "A"afec | "D"defg afef |
"A"gfed cABc | "D"d2 (3efg a2 (3fga | "Bm"b2 fb "A"afed |
"G"gfed "A"cdeg | [1 f"D"e d2 d2 Bc:| [2 f"D"e d2 d4 |]
% abcbook-tune_id 6298c245e4e2c2bb866a2c44


% abcbook-boost 0
% abcbook-tablature 
% abcbook-transpose 
% abcbook-lastupdated 1654178373386
% abcbook-soundfonts 
% abcbook-repeats 1


